X:1
T:Won’t Somebody Tell Them?
T:Won’t Somebody Tell Them?
T:Anna G. Lambert
T:William Charles Poole, 1900
T:Public Domain Courtesy of the Cyber Hymnal™
C:Anna G. Lambert
Z:Public Domain
Z:Courtesy of the Cyber Hymnal™
%%score ( 1 2 ) ( 3 4 )
L:1/8
Q:1/4=130
M:3/4
K:F
V:1 treble 
V:2 treble 
V:3 bass 
V:4 bass 
V:1
 [FA]2 [FA]2 [FA]2 | [FA]3 [F^G] [FA]2 | [FB]2 F2 [FG]2 | [FA]6 | [Ec]2 [EG]2 [EB]2 | %5
w: 1.~O- ver the|mount- ains so|bleak and so|cold,|Far from the|
w: 2.~Lost ones are|grop- ing in|sin’s aw- ful|night,|Fall- ing and|
w: 3.~Speed with the|mes- sage, oh,|speed in His|name,|Hast- en the|
 [FA]3 [CG] [CF]2 | [DG]2 D2 [DF]2 | ([CE]2 [=B,D]2 [_B,C]2) | C2 [CF]2 [CG]2 | [FA]3 [F^G] [FA]2 | %10
w: beau- ti- ful|ci- ty of|gold; * *|Lost ones are|stray- ing be-|
w: dy- ing a-|way from the|right; * *|Man- y the|mes- sage of|
w: sto- ry of|Christ to pro-|claim! * *|Hast- en to|bring back the|
 [FB]2 F2 [FG]2 | [FA]6 | [FB]3 [Fc] [Fd]2 | [Fc]2 F2 [FB]2 | [FA]3 F [EG]2 | !fermata!F4 || %16
w: cause you and|I|Nev- er have|told them a|Sav- ior is|nigh.|
w: Christ nev- er|heard,|Lost ones for|whom no one|ev- er has|cared.|
w: fall- en and|lost,|Speed with the|mes- sage, what-|ev- er the|cost!|
"^Refrain" [Fc]2 | [Fc]3 [Fc] [F=B][Fc] | [Fd]2 [Fc]4 | [FA]3 [CG] [CF]2 | [CF]2 [CE]2 [CF]2 | %21
w: |||||
w: O,|won’t some- bo- dy|tell them,|Tell them of|Cal- va- ry’s|
w: |||||
 [EG]6 | [FA]3 [FA] [FA]2 | [FA]2 [EB]2 [_Ec]2 | [DB]2 [Fd]4 | [Fc]2 [F=B]2 [Fc]2 | %26
w: |||||
w: tree;|Tell them the|sto- ry of|Je- sus,|What a great|
w: |||||
 [Fd]2 [CE]2 [EG]2 | F6 |] %28
w: ||
w: Sav- ior is|He!|
w: ||
V:2
 x6 | x6 | x2 F2 x2 | x6 | x6 | x6 | x2 D2 x2 | x6 | C2 x4 | x6 | x2 F2 x2 | x6 | x6 | x2 F2 x2 | %14
 x3 F x2 | F4 || x2 | x6 | x6 | x6 | x6 | x6 | x6 | x6 | x6 | x6 | x6 | F6 |] %28
V:3
 [F,C]2 [F,C]2 [F,C]2 | [F,C]3 [F,=B,] [F,C]2 | [F,D]2 [F,D]2 [F,_D]2 | [F,C]6 | %4
 [C,G,]2 [C,C]2 [C,C]2 | [F,C]3 [F,B,] [F,A,]2 | [G,=B,]2 [G,B,]2 [G,B,]2 | G,6 | %8
 [F,A,]2 [F,A,]2 [F,B,]2 | [F,C]3 [F,=B,] [F,C]2 | [F,D]2 [F,D]2 [F,_D]2 | [F,C]6 | %12
 [D,B,]3 [C,A,] [B,,B,]2 | [F,A,]2 [D,A,]2 [B,,D]2 | [C,C]3 [C,A,] [C,B,]2 | !fermata![F,A,]4 || %16
 [F,A,]2 | [F,A,]3 [F,A,] [F,^G,][F,A,] | [F,B,]2 [F,A,]4 | [F,C]3 [F,B,] [F,A,]2 | %20
 [F,A,]2 [G,B,]2 [F,A,]2 | [C,C]6 | [F,C]3 [F,C] [F,C]2 | [F,C]2 [G,C]2 [A,C]2 | B,2 [B,,B,]4 | %25
 [F,A,]2 [F,^G,]2 [F,A,]2 | [F,B,]2 [C,C]2 [C,B,]2 | [F,A,]6 |] %28
V:4
 x6 | x6 | x6 | x6 | x6 | x6 | x6 | C,2 D,2 E,2 | x6 | x6 | x6 | x6 | x6 | x6 | x6 | x4 || x2 | %17
 x6 | x6 | x6 | x6 | x6 | x6 | x6 | B,2 x4 | x6 | x6 | x6 |] %28

